static/img/companies/original/ubisoft.svg

<svg width="106" height="32" viewBox="0 0 106 32" fill="none" xmlns="http://www.w3.org/2000/svg">
<path d="M31.4 16.15C31.06 -0.0299921 9.54 -6.05999 1.26 9.10001L2.5 10C1.88686 11.2777 1.45277 12.6338 1.21 14.03C1.05012 14.9312 0.969811 15.8447 0.970002 16.76C1.07173 20.7277 2.71938 24.4988 5.56165 27.2691C8.40393 30.0395 12.216 31.5899 16.185 31.5899C20.154 31.5899 23.9661 30.0395 26.8084 27.2691C29.6506 24.4988 31.2983 20.7277 31.4 16.76V16.16V16.15ZM4.72 18.86C4.52 20.5 4.65 21.01 4.65 21.21L4.28 21.34C3.94386 20.543 3.72816 19.7005 3.64 18.84C3.43611 16.4452 4.15335 14.0628 5.64547 12.1786C7.13759 10.2944 9.29221 9.05034 11.67 8.70001C16.34 8.02001 20.8 10.91 21.84 14.97L21.47 15.09C21.36 14.98 21.17 14.65 20.46 13.94C14.82 8.30001 5.98 10.88 4.72 18.86V18.86ZM19.2 21.6C18.819 22.1491 18.3108 22.5978 17.7187 22.9078C17.1266 23.2177 16.4683 23.3798 15.8 23.38C15.2542 23.3813 14.7135 23.275 14.2088 23.067C13.7041 22.859 13.2455 22.5535 12.859 22.168C12.4726 21.7825 12.166 21.3246 11.9569 20.8205C11.7477 20.3163 11.64 19.7758 11.64 19.23C11.6421 18.1818 12.0399 17.1731 12.7537 16.4055C13.4675 15.6379 14.4447 15.1681 15.49 15.09C16.1406 15.0599 16.7862 15.2173 17.3499 15.5435C17.9137 15.8697 18.3719 16.3509 18.67 16.93C18.9858 17.5606 19.0976 18.2737 18.9901 18.9707C18.8826 19.6676 18.5611 20.3139 18.07 20.82L19.2 21.6V21.6ZM27.86 21.76C26.9139 24.0265 25.3069 25.9553 23.2484 27.295C21.1899 28.6346 18.7755 29.3229 16.32 29.27C7.06 28.82 4.37 18.13 10.56 14.28L10.83 14.55C10.73 14.7 10.36 14.98 9.79 16.11C9.21533 17.2202 8.93962 18.4609 8.99 19.71C9.47 27.16 19.93 28.69 23.53 21.3C28.1 11.18 15.95 0.900009 5.16 8.76001L4.92 8.52001C7.76 4.07001 13.32 2.08001 18.6 3.41001C20.502 3.86656 22.2818 4.73188 23.8156 5.94582C25.3494 7.15975 26.6004 8.69318 27.4817 10.4395C28.3629 12.1858 28.8532 14.1031 28.9186 16.058C28.9839 18.013 28.6227 19.9588 27.86 21.76V21.76ZM46.16 10.21V17.23C46.16 20.03 44.46 22.11 41.33 22.11C38.2 22.11 36.5 20.03 36.5 17.23V10.22H39.03V17.03C39.03 18.73 39.83 19.7 41.33 19.7C42.82 19.7 43.63 18.73 43.63 17.03V10.22H46.17L46.16 10.21ZM55.63 18.53C55.63 20.56 54.04 22.01 51.47 22.01H47.42V10.31H51.32C53.57 10.31 55.07 11.4 55.07 13.14C55.07 14.47 54.46 15.26 53.53 15.65C54.78 16.12 55.63 16.96 55.63 18.53V18.53ZM49.98 12.55V15.02H51.32C52.1 15.02 52.64 14.57 52.64 13.78C52.64 12.99 52.1 12.54 51.32 12.54H49.98V12.55ZM51.38 19.77C52.48 19.77 53.1 19.27 53.1 18.31C53.1 17.35 52.49 16.84 51.39 16.84H49.98V19.77H51.38ZM56.62 10.32H59.16V22.02H56.62V10.32ZM65.32 15.05C67.32 15.75 68.35 16.65 68.35 18.46C68.35 20.89 66.5 22.23 64.3 22.23C62.27 22.23 60.72 21.33 60.06 19.66L62.09 18.16C62.2498 18.643 62.5542 19.0652 62.9621 19.3693C63.37 19.6734 63.8615 19.8447 64.37 19.86C65.21 19.86 65.81 19.4 65.81 18.66C65.81 17.96 65.36 17.52 63.69 16.92C61.88 16.26 60.53 15.37 60.53 13.42C60.53 11.56 62.09 10.12 64.34 10.12C66.14 10.12 67.52 10.84 68.18 12.27L66.16 13.67C65.77 12.8 65.17 12.31 64.24 12.31C63.47 12.31 62.9 12.73 62.9 13.33C62.92 14.01 63.56 14.43 65.31 15.05H65.32ZM80.98 16.16C81.0104 16.9567 80.877 17.7512 80.5881 18.4943C80.2993 19.2374 79.8611 19.9134 79.3006 20.4804C78.7401 21.0475 78.0693 21.4935 77.3296 21.791C76.5899 22.0885 75.797 22.2311 75 22.21C71.44 22.21 69.04 19.66 69.04 16.56C69.04 14.56 69.83 13.1 70.98 12.16L70.58 11.76C71.787 10.6576 73.3762 10.0693 75.01 10.12C75.8037 10.1047 76.5922 10.251 77.3275 10.5501C78.0629 10.8493 78.7296 11.2949 79.2872 11.86C79.8448 12.4251 80.2815 13.0977 80.5708 13.8369C80.8601 14.5762 80.9959 15.3666 80.97 16.16H80.98ZM78.4 16.16C78.4 14.06 77.05 12.53 75.01 12.53C73.83 12.53 72.95 12.98 72.41 13.57L72.81 13.97C72.4281 14.2669 72.1221 14.6501 71.917 15.0881C71.7119 15.5262 71.6135 16.0066 71.63 16.49C71.6172 16.935 71.6963 17.3779 71.8623 17.7911C72.0283 18.2042 72.2776 18.5787 72.5948 18.8911C72.9119 19.2036 73.2901 19.4473 73.7056 19.6072C74.1212 19.767 74.5652 19.8394 75.01 19.82C77.07 19.8 78.39 18.27 78.39 16.16H78.4ZM84.56 12.73V15.43H89.52V17.38H84.56V22H82.02V10.3H90.04V12.72H84.56V12.73ZM100.12 12.73H96.84V22H94.3V12.72H91V10.31H100.12V12.71V12.73Z" fill="#3B4533"/>
</svg>

<svg xmlns="http://www.w3.org/2000/svg" aria-labelledby="title" class="icon icon-ubisoft-logo" viewBox="0 0 106 32"><path fill="#3B4533" d="M31.4 16.15C31.06-.03 9.54-6.06 1.26 9.1L2.5 10a15.42 15.42 0 0 0-1.29 4.03 15.61 15.61 0 0 0-.24 2.73 15.22 15.22 0 0 0 30.43 0v-.6zM4.72 18.86c-.2 1.64-.07 2.15-.07 2.35l-.37.13a8.72 8.72 0 0 1-.64-2.5A9.44 9.44 0 0 1 11.67 8.7c4.67-.68 9.13 2.21 10.17 6.27l-.37.12c-.11-.11-.3-.44-1.01-1.15-5.64-5.64-14.48-3.06-15.74 4.92zM19.2 21.6a4.14 4.14 0 0 1-3.4 1.78 4.15 4.15 0 0 1-4.16-4.15 4.16 4.16 0 0 1 3.85-4.14 3.4 3.4 0 0 1 3.18 1.84 3.4 3.4 0 0 1-.6 3.89l1.13.78zm8.66.16a12.22 12.22 0 0 1-11.54 7.51c-9.26-.45-11.95-11.14-5.76-14.99l.27.27c-.1.15-.47.43-1.04 1.56a7.2 7.2 0 0 0-.8 3.6c.48 7.45 10.94 8.98 14.54 1.59C28.1 11.18 15.95.9 5.16 8.76l-.24-.24c2.84-4.45 8.4-6.44 13.68-5.11a13.47 13.47 0 0 1 9.26 18.35zm18.3-11.55v7.02c0 2.8-1.7 4.88-4.83 4.88s-4.83-2.08-4.83-4.88v-7.01h2.53v6.81c0 1.7.8 2.67 2.3 2.67 1.49 0 2.3-.97 2.3-2.67v-6.81h2.54zm9.47 8.32c0 2.03-1.59 3.48-4.16 3.48h-4.05v-11.7h3.9c2.25 0 3.75 1.09 3.75 2.83 0 1.33-.61 2.12-1.54 2.51 1.25.47 2.1 1.31 2.1 2.88zm-5.65-5.98v2.47h1.34c.78 0 1.32-.45 1.32-1.24s-.54-1.24-1.32-1.24h-1.34zm1.4 7.22c1.1 0 1.72-.5 1.72-1.46s-.61-1.47-1.71-1.47h-1.41v2.93h1.4zm5.24-9.45h2.54v11.7h-2.54v-11.7zm8.7 4.73c2 .7 3.03 1.6 3.03 3.41 0 2.43-1.85 3.77-4.05 3.77-2.03 0-3.58-.9-4.24-2.57l2.03-1.5a2.48 2.48 0 0 0 2.28 1.7c.84 0 1.44-.46 1.44-1.2 0-.7-.45-1.14-2.12-1.74-1.81-.66-3.16-1.55-3.16-3.5 0-1.86 1.56-3.3 3.81-3.3 1.8 0 3.18.72 3.84 2.15l-2.02 1.4c-.39-.87-.99-1.36-1.92-1.36-.77 0-1.34.42-1.34 1.02.02.68.66 1.1 2.41 1.72zm15.66 1.11A5.83 5.83 0 0 1 75 22.21c-3.56 0-5.96-2.55-5.96-5.65 0-2 .79-3.46 1.94-4.4l-.4-.4a6.28 6.28 0 0 1 4.43-1.64 5.85 5.85 0 0 1 5.96 6.04zm-2.58 0c0-2.1-1.35-3.63-3.39-3.63-1.18 0-2.06.45-2.6 1.04l.4.4a3.06 3.06 0 0 0-1.18 2.52 3.24 3.24 0 0 0 3.38 3.33c2.06-.02 3.38-1.55 3.38-3.66zm6.16-3.43v2.7h4.96v1.95h-4.96V22h-2.54v-11.7h8.02v2.42h-5.48zm15.56 0h-3.28V22H94.3v-9.28H91v-2.41h9.12v2.4z"/></svg>
